X:1
T:Here We Are but Straying Pilgrims
T:Here We Are but Straying Pilgrims
T:William Oscar Perkins
T:Isaac Newton Carman, 1863
T:Public Domain Courtesy of the Cyber Hymnal™
C:William Oscar Perkins
Z:Public Domain
Z:Courtesy of the Cyber Hymnal™
%%score ( 1 2 ) 3
L:1/8
Q:1/4=110
M:4/4
K:G
V:1 treble 
V:2 treble 
V:3 bass 
V:1
 G3 G G2 D2 | G2 B2 d2 B2 | A3 A A2 A2 | G2 A2 B4 | G3 G G2 D2 | G2 B2 d2 B2 | A3 A A2 G2 | %7
w: 1.~Here we are but|stray- ing pil- grims;|Here our path is|oft- en dim;|But to cheer us|on our jour- ney,|Still we sing this|
w: 2.~Here our feet are|oft- en wea- ry|On the hills that|throng our way;|Here the tem- pest|dark- ly ga- thers,|But our hearts with-|
w: 3.~Here our souls are|oft- en fear- ful|Of the pil- grim’s|lurk- ing foe;|But the Lord is|our de- fend- er,|And He tells us|
 B2 A2 G4 ||"^Refrain" [GB]2 [GB]2 [GB]2 [GB][FA] | G2 [Ge]2 [Gd]2 [GB]2 | [FA]3 [FA] [FA]2 [FA]2 | %11
w: way- side hymn:||||
w: in us say:|Yon- der o- ver the|roll- ing riv- er,|Where the shin- ing|
w: we may know:||||
 G2 [FA]2 [GB]4 | [GB]3 [GB] [GB]2 [DA]2 | [DG]2 [Ge]2 [Gd]2 [GB]2 | [FA]3 [FA] [FA]2 [FA][FA] | %15
w: ||||
w: man- sions rise,|Soon will be our|home for ev- er,|And the smile of the|
w: ||||
 G2 [FA]2 [GB]2 [Gd]2 | [Ge]3 [Ge] [Gd]2 G2 | [GB]2 [FA]2 G4 |] %18
w: |||
w: bless- èd Giv- er|Glad- dens all our|long- ing eyes.|
w: |||
V:2
 x8 | x8 | x8 | x8 | x8 | x8 | x8 | x8 || x8 | G2 x6 | x8 | G2 x6 | x8 | x8 | x8 | G2 x6 | x6 G2 | %17
 x4 G4 |] %18
V:3
 z8 | z8 | z8 | z8 | z8 | z8 | z8 | z8 || [G,D]2 [G,D]2 [G,D]2 [G,D][G,C] | %9
 [G,B,]2 [G,C]2 [G,B,]2 [G,D]2 | [D,D]3 [D,D] [D,D]2 [D,D]2 | [B,,D]2 [D,D]2 [G,D]4 | %12
 [G,D]3 [G,D] [G,D]2 [G,C]2 | [G,B,]2 [G,C]2 [G,B,]2 [G,D]2 | [D,D]3 [D,D] [D,D]2 [D,D][D,D] | %15
 [B,,D]2 [D,D]2 [G,D]2 [G,,B,]2 | [C,C]3 [C,C] [B,,D]2 [E,B,]2 | [D,D]2 [D,C]2 [G,B,]4 |] %18

